X: 1
T: String Quartet in B\b major opus 1 no 1 mvt 3
C: Franz Joseph Haydn
%%abc-version 2.0
%%abcx-abcm2ps-target-version 5.9.1 (29 Sep 2008)
%%abc-creator hum2abc beta
%%abcx-conversion-date 2021/02/14 14:38:34
%%abc-copyright Copyright (c) 1994, 2000 Center for Computer Assisted Research in the Humanities
%%abc-edited-by Frances Bennion
%%abcx-initial-encoding-date 1997/04/15
%%gracespace 0 6 6
%%humdrum-veritas 2851810781
%%humdrum-veritas-data 2851095594
%%linebreak <none>
%%barnumbers 0
L: 1/16
M: 4/4
N: Derived from op01n1-03.krn
Q: "Adagio"
%%staves [1 2 3 4]
V: 1
V: 2
V: 3 clef=alto
V: 4 clef=bass
K: Eb
[V:1]z8 A8 [I:setbarnb2]|
[V:2]z8 C8 |
[V:3]z16 |
[V:4]E,16- |
[V:1]A4 G4 c8 |
[V:2]B,12 A,4 |
[V:3]z8 E8- |
[V:4]E,16- |
[V:1]B8 B4 A4 |
[V:2]A,4 G,4 C4 D4 |
[V:3]E12 F4 |
[V:4]E,16- |
[V:1]G8 z8 |
[V:2]E8 z8 |
[V:3]B,8 z8 |
[V:4]E,8 z8 |
[V:1]b4 g2e2 d3e/f/ e4 |
[V:2]GGGG GGGG AAAA GGGG |
[V:3]EEEE EEEE FFFD EEEE |
[V:4]E,E,E,E, E,E,E,E, B,,B,,B,,B,, E,E,E,E, |
[V:1]c'4 bagf b4 e'2G2 |
[V:2]cccc cccc BBBB BBBB |
[V:3]EEEE FFFF FFFF EEEE |
[V:4]A,A,A,A, A,A,A,A, G,G,G,G, G,G,E,E, |
[V:1]B4 A4 G4 z4 |
[V:2]GGGG FFFF EEEE GGGG |
[V:3]B,B,B,B, B,B,B,B, B,B,B,B, B,B,B,B, |
[V:4]B,,B,,B,,B,, B,,B,,B,,B,, E,E,E,E, E,E,E,E, |
[V:1]e4 g2b2 b2b/=a/b/c'/ d'2z2 |
[V:2]BBBB BBBB BBBB BBBB |
[V:3]GGGG GGGG FFFF FFFF |
[V:4]E,E,E,E, E,E,E,E, D,D,D,D, D,D,D,D, |
[V:1]e4 e'c'=ae e4 d4 |
[V:2]BBBB =AACC CCCC B,B,B,B, |
[V:3]EEEE EEE=A BBBB B,B,B,B, |
[V:4]C,C,C,C, F,F,F,F, B,B,B,B, B,,B,,B,,B,, |
[V:1]f4 b2a2 gg^fg zb=ab |
[V:2]BBBB BBBB BBBB BBBB |
[V:3]FFFF FFFF GGGG GGGG |
[V:4]D,D,D,D, D,D,D,D, E,E,E,E, E,E,E,E, |
[V:1]ze'd'e' g'4 zf=ef zb=ab |
[V:2]BBBB BBBB BBBB BBBB |
[V:3]GGGG GGGE FFFF FFFF |
[V:4]E,E,E,E, E,E,E,E, D,D,D,D, D,D,D,D, |
[V:1]zd'c'd' f'2z2 >e2de zgfe |
[V:2]BBBB BBBB BBBB =AAAA |
[V:3]FFFF FFFD EEEE EEDC |
[V:4]D,D,D,D, D,D,D,D, C,C,C,C, F,,F,,F,,F,, |
[V:1]zd^cd zfed z=c=Bc2 <g2_B |
[V:2]BBBB BBBB cccc CCCC |
[V:3]DDDD DDDD GGGG =EEEE |
[V:4]B,,B,,B,,B,, B,,B,,B,,B,, E,E,E,E, =E,E,E,E, |
[V:1]B4 =A4 E8 |
[V:2]CCCC CCCC CCCC CCCC |
[V:3]FFFF F,F,F,F, =A,A,A,A, A,A,A,A, |
[V:4]F,F,F,F, F,,F,,F,,F,, F,F,F,F, F,F,F,F, |
[V:1]D4 b4 C4 e'4 |
[V:2]B,B,B,B, BBBB BBBB =AAAA |
[V:3]B,B,B,B, FFFF GGGG CCCC |
[V:4]B,B,B,B, D,D,D,D, E,E,E,E, F,F,F,F, |
[V:1]d'2f'/d'/c'/b/ c'4 b4 g3=a |
[V:2]BBBB BB=AA BBBB EEEC |
[V:3]B,B,B,B, FFFF B,B,B,B, B,B,B,E |
[V:4]B,B,B,B, F,F,F,F, B,,B,,B,,B,, B,,B,,B,,B,, |
[V:1]bfed2 <g2=a bfdB c4 |
[V:2]DDCB, EEDC DBBB BB=AA |
[V:3]DB,B,B, B,B,B,E DB,B,B, F,F,F,F, |
[V:4]B,,B,,B,,B,, B,,B,,B,,B,, B,,B,,B,,B,, F,,F,,F,,F,, |
[V:1]B4 z12 |
[V:2]BBBB BBBB BBBB =AAAA |
[V:3]B,DDD DDDD CCCC CCCC |
[V:4]B,,B,,B,,B,, G,G,G,G, E,E,E,E, F,F,F,F, |
[V:1]f4 d2B2 =A3B/c/ B4 |
[V:2]BDDD DDDD EEEE DDDD |
[V:3]B,B,B,B, B,B,B,B, CCC=A, B,B,B,B, |
[V:4]B,,B,,B,,B,, B,,B,,B,,B,, F,F,F,F, B,,B,,B,,B,, |
[V:1]afdB AFDA, A,4 G,4 |
[V:2]FFFF FFFF FFFF EEEE |
[V:3]DDDD DDDD EEEE E,E,E,E, |
[V:4]B,,B,,B,,B,, B,,B,,B,,B,, E,E,E,E, E,E,E,E, |
[V:1]_d4 d2d2 b4 E4 |
[V:2]BBBB BBBB BBBB BBBB |
[V:3]GGGG GGGG GGGG GGGG |
[V:4]E,E,E,E, E,E,E,E, E,E,E,E, E,E,E,E, |
[V:1]_d'2>b2 f'2>d'2 d'4 c'2z2 |
[V:2]BBBB BBBB BBBB AAAA |
[V:3]GGGG GGGG EEEE EEEE |
[V:4]E,E,E,E, E,E,E,E, A,A,A,A, A,,A,,A,,A,, |
[V:1]c'4 A,2c'2 b4 G,2b2 |
[V:2]cccc ccAA BBBB BBGG |
[V:3]EEEE EEEE EEEE EEEE |
[V:4]A,A,A,A, A,A,A,A, G,G,G,G, G,G,G,G, |
[V:1]B3(3d/c/B/ a2g2 f2z6 |
[V:2]AAAA FFEE DBBB BBBB |
[V:3]FFFF B,B,B,B, B,DDD DDDD |
[V:4]D,D,D,D, D,D,E,E, B,B,B,B, B,,B,,B,,B,, |
[V:1]e4 g2b2 b3(3c'/b/=a/ b4 |
[V:2]BBBB BBBB BBBB BBBB |
[V:3]GGGG GGGG FFFF FFFF |
[V:4]E,E,E,E, E,E,E,E, D,D,D,D, D,D,D,D, |
[V:1]e'2a2 a2a2 a4 g4 |
[V:2]BBAA EEEE DDDD GGGG |
[V:3]EEEE EEEE DDDD DDDD |
[V:4]C,C,C,C, CCCC B,B,B,B, B,B,B,B, |
[V:1]c'4 a2f2 b4 g2e2 |
[V:2]GGGG FFFF FFFF EEEE |
[V:3]CCCC CCCC B,B,B,B, B,B,B,B, |
[V:4]A,A,A,A, A,A,A,A, G,G,G,G, G,G,G,G, |
[V:1](3defA2- A2G2 F4 z4 |
[V:2]DDDD FFEE DBBB dddd |
[V:3]A,A,FF B,B,B,B, B,DDD FFFF |
[V:4]F,F,F,F, D,D,E,E, B,,B,,B,,B,, A,,A,,A,,A,, |
[V:1]b4 e2_d'2 c'c'=bc' zaga |
[V:2]eeee _dddB cccc cccc |
[V:3]EEEE EEEE EEEE EEEE |
[V:4]G,,G,,G,,G,, G,,G,,G,,G,, A,,A,,A,,A,, A,,A,,A,,A,, |
[V:1]zede zcBA zb=ab zg^fg |
[V:2]cccc cccc BBBB BBBB |
[V:3]EEEE EEEE EEEE EEEE |
[V:4]A,,A,,A,,A,, A,,A,,A,,A,, G,,G,,G,,G,, G,,G,,G,,G,, |
[V:1]zede zBAG zaga zc'ba |
[V:2]BBBB BBBB AAAA AAGF |
[V:3]EEEE EEEE EEEE DDDD |
[V:4]G,,G,,G,,G,, G,,G,,G,,G,, F,,F,,F,,F,, B,,B,,B,,B,, |
[V:1]zg^fg zbag z=f=ef2 <c'2_e |
[V:2]GGGG GGGG CCCC FFFF |
[V:3]EB,B,B, B,B,B,B, FFFF CCCC |
[V:4]E,E,E,E, E,E,E,E, A,,A,,A,,A,, =A,,A,,A,,A,, |
[V:1]e4 d4 A,8 |
[V:2]FFFF FFFF DDDD DDDD |
[V:3]B,B,B,B, B,B,B,B, F,F,F,F, F,F,F,F, |
[V:4]B,,B,,B,,B,, B,,B,,B,,B,, B,,B,,B,,B,, B,,B,,B,,B,, |
[V:1]G,4 e4 F4 a4 |
[V:2]EEEE EEEE EEEE DDDD |
[V:3]EEEE B,B,B,B, CCCC F,F,F,F, |
[V:4]E,E,E,E, G,,G,,G,,G,, A,,A,,A,,A,, B,,B,,B,,B,, |
[V:1]g2b/g/f/e/ f4 e4 c'3d' |
[V:2]EEEE EEDD EEEE AAAF |
[V:3]E,E,E,E, B,B,B,B, E,E,E,E, EEEA |
[V:4]E,E,E,E, B,,B,,B,,B,, E,E,E,E, E,E,E,E, |
[V:1]e'bag2 <c'2d' e'bge f4 |
[V:2]GGFE AAAF GGGE EEDD |
[V:3]GEEE EEEA GEEE B,B,B,B, |
[V:4]E,E,E,E, E,E,E,E, E,E,E,E, B,,B,,B,,B,, |
[V:1]e4 z4 A8- |
[V:2]E4 z4 C8 |
[V:3]E4 z12 |
[V:4]E,16- |
[V:1]A4 G4 c8 |
[V:2]B,12 A,4- |
[V:3]z8 E8- |
[V:4]E,16- |
[V:1]B8 B4 A4 |
[V:2]A,4 G,4 C4 D4 |
[V:3]E12 F4 |
[V:4]E,16 |
[V:1]GGAB cdef g2z2 f<ed/c3/ |
[V:2]EEFG ABcd e2z2 d<cB/A3/ |
[V:3]E4 z12 |
[V:4]E,4 z12 |
[V:1]B4 A4 G2E2 F2D2 |
[V:2]G4 F4 E2E2 F2D2 |
[V:3]B,8 E,2G,2 A,2F,2 |
[V:4]B,,8 E,,2C,2 A,,2B,,2 |
[V:1]E2z2 [E2G,2]z2 [E4G,4] z4 |]
[V:2]E2z2 [G,2E2]z2 [E4G,4] z4 |]
[V:3]E,2z2 E,2z2 E,4 z4 |]
[V:4]E,2z2 E,,2z2 E,,4 z4 |]

